;FLAVOR:Marlin
;TIME:474
;Filament used: 0.439703m
;Layer height: 0.2
;MINX:86.252
;MINY:66.927
;MINZ:0.2
;MAXX:116.551
;MAXY:130.463
;MAXZ:2.8
;Generated with Cura_SteamEngine 4.11.0
M140 S60
M105
M190 S60
M104 S200
M105
M109 S200
M82 ;absolute extrusion mode
G21 ;metric values
G90 ;absolute positioning
M82 ;set extruder to absolute mode
M107 ;start with the fan off
G28 X0 Y0 ;move X/Y to min endstops
G28 Z0 ;move Z to min endstops
G1 Z15.0 F100 ;move the platform down 15mm
G92 E0 ;zero the extruded length
G1 F200 E3 ;extrude 3mm of feed stock
G92 E0 ;zero the extruded length again
G1 F100
G0 Y20 F100
M117 Printing...
G5
G92 E0
G92 E0
G1 F2400 E-6
;LAYER_COUNT:14
;LAYER:0
M107
M204 S3000
M205 X10 Y10
G1 F600 Z0.275
G0 F3000 X87.709 Y69.282 Z0.275
M204 S1800
M205 X8 Y8
;TYPE:SKIRT
G1 F600 Z0.2
G1 F2400 E0
G1 X88.192 Y68.755 E0.03329
G1 X88.731 Y68.285 E0.06659
G1 X89.319 Y67.878 E0.09989
G1 X89.949 Y67.539 E0.1332
G1 X90.613 Y67.273 E0.16651
G1 X91.302 Y67.082 E0.1998
G1 X92.009 Y66.969 E0.23314
G1 X92.801 Y66.93 E0.27006
G1 X92.981 Y66.927 E0.27844
G1 X102.444 Y66.927 E0.71908
G1 X103.235 Y66.938 E0.75592
G1 X103.948 Y66.988 E0.7892
G1 X104.651 Y67.117 E0.82248
G1 X105.336 Y67.324 E0.8558
G1 X105.993 Y67.607 E0.88911
G1 X106.615 Y67.961 E0.92243
G1 X107.193 Y68.382 E0.95573
G1 X107.721 Y68.864 E0.98902
G1 X108.191 Y69.403 E1.02232
G1 X108.599 Y69.991 E1.05565
G1 X108.938 Y70.621 E1.08896
G1 X109.205 Y71.284 E1.12224
G1 X109.378 Y71.892 E1.15168
G1 X109.625 Y72.964 E1.2029
G1 X109.708 Y73.351 E1.22133
G1 X110.349 Y75.972 E1.34697
G1 X111.042 Y78.493 E1.46871
G1 X111.818 Y81.036 E1.59252
G1 X112.65 Y83.509 E1.71401
G1 X113.582 Y86.037 E1.83947
G1 X114.552 Y88.459 E1.96096
G1 X115.999 Y91.75 E2.12836
G1 X116.25 Y92.42 E2.16168
G1 X116.424 Y93.114 E2.19499
G1 X116.536 Y94.088 E2.24064
G1 X116.551 Y94.843 E2.27581
G1 X116.549 Y114.72 E3.20136
G1 X116.536 Y115.68 E3.24607
G1 X116.499 Y116.428 E3.28094
G1 X116.414 Y117.255 E3.31965
G1 X116.343 Y117.758 E3.34331
G1 X116.195 Y118.531 E3.37996
G1 X116.076 Y119.041 E3.40434
G1 X115.855 Y119.819 E3.442
G1 X115.701 Y120.295 E3.4653
G1 X115.398 Y121.089 E3.50487
G1 X115.067 Y121.836 E3.54291
G1 X114.753 Y122.458 E3.57536
G1 X114.433 Y123.029 E3.60584
G1 X114.095 Y123.573 E3.63566
G1 X113.711 Y124.137 E3.66743
G1 X113.353 Y124.614 E3.6952
G1 X112.884 Y125.192 E3.72986
G1 X112.476 Y125.646 E3.75828
G1 X112.002 Y126.133 E3.78993
G1 X111.541 Y126.565 E3.81935
G1 X111.023 Y127.013 E3.85124
G1 X110.5 Y127.424 E3.88221
G1 X109.96 Y127.812 E3.91317
G1 X109.411 Y128.171 E3.94372
G1 X108.828 Y128.518 E3.97531
G1 X108.28 Y128.81 E4.00422
G1 X107.675 Y129.103 E4.03552
G1 X107.061 Y129.366 E4.06663
G1 X106.443 Y129.6 E4.0974
G1 X105.804 Y129.809 E4.1287
G1 X105.17 Y129.988 E4.15938
G1 X104.554 Y130.132 E4.18883
G1 X103.871 Y130.262 E4.22121
G1 X103.27 Y130.348 E4.24948
G1 X102.577 Y130.419 E4.28192
G1 X101.903 Y130.456 E4.31335
G1 X101.251 Y130.463 E4.34371
G1 X100.628 Y130.443 E4.37273
G1 X99.931 Y130.393 E4.40527
G1 X99.268 Y130.313 E4.43637
G1 X98.623 Y130.208 E4.4668
G1 X97.992 Y130.075 E4.49683
G1 X97.359 Y129.914 E4.52724
G1 X96.723 Y129.723 E4.55816
G1 X96.075 Y129.497 E4.59012
G1 X95.491 Y129.263 E4.61941
G1 X94.89 Y128.992 E4.65011
G1 X94.427 Y128.76 E4.67422
G1 X93.695 Y128.356 E4.71316
G1 X93.159 Y128.023 E4.74254
G1 X92.59 Y127.637 E4.77456
G1 X92.103 Y127.27 E4.80295
G1 X91.532 Y126.805 E4.83724
G1 X91.047 Y126.369 E4.86761
G1 X90.596 Y125.929 E4.89695
G1 X90.157 Y125.462 E4.92679
G1 X89.736 Y124.973 E4.95684
G1 X89.416 Y124.571 E4.98076
G1 X88.92 Y123.892 E5.01992
G1 X88.546 Y123.317 E5.05186
G1 X88.219 Y122.767 E5.08165
G1 X87.926 Y122.222 E5.11046
G1 X87.619 Y121.586 E5.14335
G1 X87.366 Y120.995 E5.17328
G1 X87.121 Y120.35 E5.20541
G1 X86.928 Y119.756 E5.23449
G1 X86.748 Y119.123 E5.26514
G1 X86.591 Y118.456 E5.29704
G1 X86.468 Y117.802 E5.32803
G1 X86.376 Y117.157 E5.35837
G1 X86.306 Y116.459 E5.39103
G1 X86.276 Y115.907 E5.41678
G1 X86.255 Y115.227 E5.44845
G1 X86.252 Y115.029 E5.45768
G1 X86.252 Y73.905 E7.37258
G1 X86.262 Y73.24 E7.40355
G1 X86.312 Y72.526 E7.43688
G1 X86.442 Y71.823 E7.47017
G1 X86.65 Y71.139 E7.50346
G1 X86.933 Y70.482 E7.53677
G1 X87.287 Y69.86 E7.57009
G1 X87.709 Y69.282 E7.60342
M204 S3000
M205 X10 Y10
G0 F3000 X88.26 Y69.497
M204 S1800
M205 X8 Y8
G1 F2400 X88.739 Y69.009 E7.63526
G1 X89.271 Y68.581 E7.66705
G1 X89.85 Y68.217 E7.6989
G1 X90.467 Y67.924 E7.7307
G1 X91.114 Y67.705 E7.76251
G1 X91.782 Y67.563 E7.79431
G1 X92.497 Y67.498 E7.82774
G1 X92.981 Y67.487 E7.85028
G1 X102.444 Y67.487 E8.29092
G1 X103.227 Y67.498 E8.32738
G1 X103.908 Y67.547 E8.35917
G1 X104.579 Y67.676 E8.39099
G1 X105.23 Y67.883 E8.4228
G1 X105.853 Y68.164 E8.45462
G1 X106.439 Y68.516 E8.48645
G1 X106.979 Y68.934 E8.51825
G1 X107.467 Y69.412 E8.55006
G1 X107.896 Y69.944 E8.58188
G1 X108.26 Y70.522 E8.61369
G1 X108.553 Y71.139 E8.64549
G1 X108.832 Y72.019 E8.68848
G1 X109.078 Y73.081 E8.73924
G1 X109.168 Y73.499 E8.75915
G1 X109.806 Y76.109 E8.88426
G1 X110.498 Y78.627 E9.00586
G1 X111.287 Y81.211 E9.13166
G1 X112.133 Y83.724 E9.25513
G1 X113.056 Y86.23 E9.37949
G1 X114.042 Y88.691 E9.50294
G1 X115.486 Y91.976 E9.67003
G1 X115.724 Y92.616 E9.70182
G1 X115.886 Y93.28 E9.73365
G1 X115.976 Y94.109 E9.77247
G1 X115.991 Y94.849 E9.80694
G1 X115.989 Y114.712 E10.73184
G1 X115.976 Y115.672 E10.77655
G1 X115.94 Y116.395 E10.81026
G1 X115.858 Y117.191 E10.84752
G1 X115.734 Y117.988 E10.88508
G1 X115.604 Y118.61 E10.91466
G1 X115.452 Y119.211 E10.94353
G1 X115.261 Y119.842 E10.97423
G1 X115.059 Y120.423 E11.00287
G1 X114.802 Y121.064 E11.03503
G1 X114.566 Y121.586 E11.0617
G1 X114.26 Y122.192 E11.09332
G1 X113.956 Y122.736 E11.12233
G1 X113.627 Y123.265 E11.15134
G1 X113.262 Y123.803 E11.18161
G1 X112.913 Y124.269 E11.20872
G1 X112.466 Y124.819 E11.24173
G1 X112.069 Y125.261 E11.26939
G1 X111.616 Y125.727 E11.29965
G1 X111.169 Y126.147 E11.32821
G1 X110.675 Y126.574 E11.35862
G1 X110.165 Y126.975 E11.38883
G1 X109.652 Y127.344 E11.41825
G1 X109.117 Y127.694 E11.44802
G1 X108.562 Y128.025 E11.47811
G1 X108.03 Y128.309 E11.50619
G1 X107.451 Y128.589 E11.53614
G1 X106.854 Y128.846 E11.56641
G1 X106.266 Y129.069 E11.59569
G1 X105.644 Y129.272 E11.62615
G1 X105.04 Y129.443 E11.65538
G1 X104.441 Y129.583 E11.68403
G1 X103.789 Y129.708 E11.71494
G1 X103.205 Y129.792 E11.74241
G1 X102.544 Y129.86 E11.77336
G1 X101.887 Y129.896 E11.80399
G1 X101.267 Y129.904 E11.83287
G1 X100.659 Y129.884 E11.86119
G1 X99.995 Y129.836 E11.89219
G1 X99.35 Y129.759 E11.92244
G1 X98.736 Y129.659 E11.95141
G1 X98.121 Y129.53 E11.98067
G1 X97.518 Y129.378 E12.00962
G1 X96.898 Y129.191 E12.03978
G1 X96.281 Y128.977 E12.07019
G1 X95.713 Y128.749 E12.09869
G1 X95.141 Y128.491 E12.1279
G1 X94.678 Y128.259 E12.15202
G1 X93.988 Y127.879 E12.1887
G1 X93.466 Y127.555 E12.21731
G1 X92.925 Y127.188 E12.24775
G1 X92.45 Y126.83 E12.27544
G1 X91.904 Y126.387 E12.30818
G1 X91.432 Y125.962 E12.33776
G1 X91.003 Y125.544 E12.36565
G1 X90.576 Y125.09 E12.39467
G1 X90.174 Y124.624 E12.42333
G1 X89.854 Y124.222 E12.44725
G1 X89.388 Y123.583 E12.48408
G1 X89.024 Y123.025 E12.5151
G1 X88.711 Y122.5 E12.54356
G1 X88.427 Y121.97 E12.57156
G1 X88.133 Y121.364 E12.60292
G1 X87.886 Y120.788 E12.63211
G1 X87.653 Y120.174 E12.66269
G1 X87.464 Y119.596 E12.691
G1 X87.293 Y118.992 E12.72023
G1 X87.14 Y118.342 E12.75133
G1 X87.022 Y117.722 E12.78072
G1 X86.933 Y117.092 E12.81034
G1 X86.865 Y116.427 E12.84147
G1 X86.836 Y115.889 E12.86656
G1 X86.815 Y115.209 E12.89824
G1 X86.812 Y115.029 E12.90662
G1 X86.812 Y73.913 E14.82115
G1 X86.822 Y73.248 E14.85212
G1 X86.872 Y72.567 E14.88392
G1 X87.001 Y71.896 E14.91573
G1 X87.208 Y71.245 E14.94754
G1 X87.49 Y70.622 E14.97938
G1 X87.842 Y70.037 E15.01118
G1 X88.26 Y69.497 E15.04297
M204 S3000
M205 X10 Y10
G0 F3000 X88.396 Y70.223
M204 S1800
M205 X8 Y8
G1 F2400 X88.811 Y69.723 E15.07323
G1 X89.284 Y69.277 E15.1035
G1 X89.808 Y68.893 E15.13375
G1 X90.375 Y68.577 E15.16398
G1 X90.977 Y68.332 E15.19424
G1 X91.604 Y68.163 E15.22448
G1 X92.513 Y68.058 E15.26709
G1 X92.981 Y68.047 E15.28889
G1 X102.444 Y68.047 E15.72952
G1 X103.219 Y68.058 E15.76561
G1 X103.866 Y68.107 E15.79583
G1 X104.503 Y68.235 E15.82608
G1 X105.119 Y68.441 E15.85633
G1 X105.706 Y68.721 E15.88661
G1 X106.253 Y69.07 E15.91682
G1 X106.754 Y69.484 E15.94709
G1 X107.199 Y69.957 E15.97733
G1 X107.584 Y70.481 E16.0076
G1 X107.901 Y71.048 E16.03785
G1 X108.146 Y71.649 E16.06807
G1 X108.287 Y72.145 E16.09208
G1 X108.53 Y73.199 E16.14245
G1 X108.617 Y73.606 E16.16183
G1 X109.266 Y76.255 E16.28883
G1 X109.963 Y78.795 E16.41147
G1 X110.748 Y81.366 E16.53664
G1 X111.601 Y83.899 E16.6611
G1 X112.538 Y86.443 E16.78734
G1 X113.526 Y88.911 E16.91112
G1 X114.973 Y92.201 E17.07848
G1 X115.198 Y92.811 E17.10876
G1 X115.346 Y93.443 E17.13898
G1 X115.416 Y94.129 E17.17109
G1 X115.431 Y94.856 E17.20495
G1 X115.43 Y114.704 E18.12916
G1 X115.417 Y115.664 E18.17386
G1 X115.381 Y116.363 E18.20645
G1 X115.301 Y117.127 E18.24222
G1 X115.185 Y117.876 E18.27752
G1 X115.059 Y118.479 E18.3062
G1 X114.915 Y119.052 E18.33371
G1 X114.73 Y119.665 E18.36353
G1 X114.538 Y120.217 E18.39074
G1 X114.288 Y120.841 E18.42204
G1 X114.066 Y121.335 E18.44726
G1 X113.767 Y121.926 E18.4781
G1 X113.479 Y122.442 E18.50562
G1 X113.159 Y122.957 E18.53385
G1 X112.813 Y123.469 E18.56263
G1 X112.472 Y123.924 E18.5891
G1 X112.048 Y124.447 E18.62045
G1 X111.662 Y124.876 E18.64732
G1 X111.231 Y125.32 E18.67614
G1 X110.797 Y125.728 E18.70387
G1 X110.327 Y126.135 E18.73282
G1 X109.83 Y126.526 E18.76227
G1 X109.345 Y126.877 E18.79015
G1 X108.823 Y127.217 E18.81916
G1 X108.295 Y127.533 E18.84781
G1 X107.779 Y127.809 E18.87506
G1 X107.228 Y128.076 E18.90357
G1 X106.647 Y128.325 E18.933
G1 X106.09 Y128.537 E18.96075
G1 X105.484 Y128.736 E18.99045
G1 X104.909 Y128.899 E19.01828
G1 X104.329 Y129.035 E19.04602
G1 X103.707 Y129.154 E19.07551
G1 X103.14 Y129.235 E19.10218
G1 X102.51 Y129.301 E19.13168
G1 X101.872 Y129.336 E19.16143
G1 X101.284 Y129.344 E19.18881
G1 X100.69 Y129.325 E19.21648
G1 X100.059 Y129.28 E19.24594
G1 X99.432 Y129.205 E19.27534
G1 X98.848 Y129.11 E19.3029
G1 X98.251 Y128.985 E19.3313
G1 X97.677 Y128.841 E19.35885
G1 X97.074 Y128.659 E19.38818
G1 X96.488 Y128.456 E19.41706
G1 X95.935 Y128.235 E19.44479
G1 X95.392 Y127.991 E19.47251
G1 X94.929 Y127.759 E19.49662
G1 X94.281 Y127.402 E19.53107
G1 X93.773 Y127.087 E19.55891
G1 X93.26 Y126.739 E19.58777
G1 X92.796 Y126.39 E19.61481
G1 X92.277 Y125.969 E19.64593
G1 X91.817 Y125.556 E19.67471
G1 X91.409 Y125.158 E19.70125
G1 X90.995 Y124.718 E19.72938
G1 X90.612 Y124.275 E19.75665
G1 X90.292 Y123.873 E19.78058
G1 X89.855 Y123.275 E19.81507
G1 X89.502 Y122.733 E19.84518
G1 X89.203 Y122.232 E19.87235
G1 X88.927 Y121.718 E19.89952
G1 X88.647 Y121.142 E19.92934
G1 X88.406 Y120.58 E19.95781
G1 X88.184 Y119.998 E19.98682
G1 X88.001 Y119.436 E20.01434
G1 X87.837 Y118.861 E20.04218
G1 X87.688 Y118.229 E20.07242
G1 X87.576 Y117.641 E20.10029
G1 X87.489 Y117.027 E20.12917
G1 X87.424 Y116.394 E20.1588
G1 X87.396 Y115.872 E20.18314
G1 X87.375 Y115.192 E20.21482
G1 X87.372 Y115.029 E20.22241
G1 X87.372 Y73.922 E22.13652
G1 X87.382 Y73.257 E22.16749
G1 X87.431 Y72.609 E22.19775
G1 X87.56 Y71.972 E22.22801
G1 X87.766 Y71.356 E22.25826
G1 X88.046 Y70.77 E22.2885
G1 X88.396 Y70.223 E22.31874
M204 S3000
M205 X10 Y10
G1 F2400 E16.31874
;MESH:pinset1.stl
G0 F3000 X91.986 Y73.981
G0 X93.305 Y73.981
G0 X94.751 Y82.427
M204 S1800
M205 X8 Y8
;TYPE:WALL-INNER
G1 F2400 E22.31874
G1 F1500 X94.751 Y115.367 E23.85256
G1 X94.791 Y116.072 E23.88544
G1 X94.916 Y116.809 E23.92025
G1 X95.122 Y117.524 E23.9549
G1 X95.408 Y118.215 E23.98972
G1 X95.769 Y118.867 E24.02442
G1 X96.202 Y119.476 E24.05922
G1 X96.714 Y120.047 E24.09493
G1 X97.255 Y120.529 E24.12867
G1 X97.861 Y120.96 E24.1633
G1 X98.514 Y121.32 E24.19802
G1 X99.204 Y121.606 E24.2328
G1 X99.923 Y121.813 E24.26764
G1 X100.658 Y121.937 E24.30234
G1 X101.401 Y121.979 E24.337
G1 X102.144 Y121.937 E24.37165
G1 X102.882 Y121.813 E24.4065
G1 X103.598 Y121.606 E24.4412
G1 X104.287 Y121.32 E24.47594
G1 X104.94 Y120.961 E24.51064
G1 X105.55 Y120.527 E24.5455
G1 X106.121 Y120.015 E24.58121
G1 X106.603 Y119.474 E24.61495
G1 X107.035 Y118.865 E24.64971
G1 X107.394 Y118.213 E24.68437
G1 X107.68 Y117.524 E24.71911
G1 X107.887 Y116.808 E24.75381
G1 X108.011 Y116.072 E24.78857
G1 X108.051 Y115.367 E24.82145
G1 X108.051 Y95.17 E25.76191
G1 X108.051 Y95.169 E25.76195
G1 X108.051 Y94.665 E25.78542
G1 X108.479 Y94.933 E25.79865
G1 X108.751 Y95.103 E25.81358
G1 X108.75 Y115.342 E26.756
G1 X108.723 Y115.957 E26.78466
G1 X108.638 Y116.603 E26.815
G1 X108.497 Y117.238 E26.84529
G1 X108.31 Y117.834 E26.87438
G1 X108.058 Y118.444 E26.90511
G1 X107.77 Y118.993 E26.93398
G1 X107.418 Y119.548 E26.96458
G1 X107.041 Y120.039 E26.9934
G1 X106.593 Y120.527 E27.02425
G1 X106.122 Y120.96 E27.05404
G1 X105.622 Y121.344 E27.0834
G1 X105.067 Y121.696 E27.114
G1 X104.518 Y121.984 E27.14287
G1 X103.908 Y122.236 E27.1736
G1 X103.312 Y122.423 E27.20269
G1 X102.678 Y122.564 E27.23293
G1 X102.052 Y122.647 E27.26233
G1 X101.401 Y122.674 E27.29267
G1 X100.751 Y122.647 E27.32297
G1 X100.125 Y122.564 E27.35237
G1 X99.491 Y122.423 E27.38261
G1 X98.885 Y122.232 E27.4122
G1 X98.288 Y121.986 E27.44227
G1 X97.738 Y121.698 E27.47117
G1 X97.182 Y121.344 E27.50187
G1 X96.69 Y120.967 E27.53073
G1 X96.189 Y120.507 E27.5624
G1 X95.775 Y120.057 E27.59087
G1 X95.38 Y119.54 E27.62117
G1 X95.032 Y118.995 E27.65128
G1 X94.745 Y118.446 E27.68012
G1 X94.497 Y117.843 E27.71048
G1 X94.303 Y117.23 E27.74042
G1 X94.163 Y116.601 E27.77043
G1 X94.08 Y115.963 E27.80039
G1 X94.051 Y115.315 E27.83059
G1 X94.051 Y74.727 E29.72054
G1 X101.751 Y74.727 E30.07908
G1 X101.751 Y75.427 E30.11168
G1 X98.251 Y75.427 E30.27465
G1 X98.251 Y81.727 E30.56801
G1 X101.751 Y81.727 E30.73098
G1 X101.751 Y82.427 E30.76358
G1 X94.751 Y82.427 E31.08952
M204 S3000
M205 X10 Y10
G0 F3000 X95.311 Y82.987
M204 S1800
M205 X8 Y8
G1 F1500 X95.311 Y115.351 E32.59653
G1 X95.348 Y116.009 E32.62722
G1 X95.463 Y116.684 E32.6591
G1 X95.651 Y117.339 E32.69083
G1 X95.913 Y117.971 E32.72269
G1 X96.244 Y118.568 E32.75447
G1 X96.64 Y119.126 E32.78633
G1 X97.11 Y119.65 E32.81911
G1 X97.604 Y120.09 E32.84991
G1 X98.16 Y120.485 E32.88167
G1 X98.757 Y120.815 E32.91344
G1 X99.389 Y121.077 E32.94529
G1 X100.047 Y121.266 E32.97717
G1 X100.721 Y121.38 E33.009
G1 X101.401 Y121.418 E33.04071
G1 X102.082 Y121.38 E33.07247
G1 X102.757 Y121.266 E33.10435
G1 X103.413 Y121.077 E33.13614
G1 X104.044 Y120.815 E33.16795
G1 X104.642 Y120.486 E33.19973
G1 X105.2 Y120.089 E33.23162
G1 X105.724 Y119.619 E33.2644
G1 X106.164 Y119.125 E33.2952
G1 X106.56 Y118.567 E33.32706
G1 X106.889 Y117.97 E33.3588
G1 X107.151 Y117.339 E33.39062
G1 X107.34 Y116.683 E33.42241
G1 X107.454 Y116.009 E33.45424
G1 X107.491 Y115.351 E33.48492
G1 X107.491 Y94.263 E34.46687
G1 X107.491 Y94.094 E34.47474
G1 X107.069 Y93.391 E34.51292
G1 X107.688 Y93.778 E34.52348
G1 X107.831 Y93.867 E34.53017
G1 X109.311 Y94.792 E34.61144
G1 X109.31 Y115.342 E35.56833
G1 X109.281 Y116.009 E35.59942
G1 X109.189 Y116.705 E35.63211
G1 X109.04 Y117.378 E35.66421
G1 X108.834 Y118.032 E35.69613
G1 X108.568 Y118.677 E35.72862
G1 X108.255 Y119.275 E35.76005
G1 X107.879 Y119.867 E35.79271
G1 X107.465 Y120.406 E35.82435
G1 X106.994 Y120.919 E35.85678
G1 X106.48 Y121.391 E35.88928
G1 X105.941 Y121.805 E35.92092
G1 X105.349 Y122.181 E35.95358
G1 X104.751 Y122.494 E35.98501
G1 X104.106 Y122.76 E36.0175
G1 X103.452 Y122.966 E36.04942
G1 X102.779 Y123.115 E36.08152
G1 X102.095 Y123.206 E36.11365
G1 X101.401 Y123.235 E36.146
G1 X100.708 Y123.206 E36.17829
G1 X100.024 Y123.115 E36.21042
G1 X99.351 Y122.966 E36.24252
G1 X98.696 Y122.76 E36.27449
G1 X98.051 Y122.493 E36.307
G1 X97.455 Y122.182 E36.3383
G1 X96.86 Y121.803 E36.37115
G1 X96.323 Y121.391 E36.40267
G1 X95.802 Y120.913 E36.43559
G1 X95.344 Y120.415 E36.46709
G1 X94.922 Y119.863 E36.49945
G1 X94.549 Y119.278 E36.53176
G1 X94.235 Y118.677 E36.56333
G1 X93.97 Y118.034 E36.59571
G1 X93.761 Y117.374 E36.62795
G1 X93.612 Y116.703 E36.65996
